X:1
T:A Supermarket Bounty
M:4/4
L:1/8
K:Dm
C:Paul Spencer
D/2| DDDC DEDD| CCCB, C3C| B,B,B,C DDCB,| A,4 z3A,| A,B,^CA, z3A,|
B,B,B,C DDCB,| D4 z3E| E^F^GE2 z2E|
AAAG AFFF| EEED E3 :|
